**kern	**kern	**dynam
*part1	*part1	*part1
*staff2	*staff1	*
*I"Piano	*	*
*clefF4	*clefG2	*
*k[f#]	*k[f#]	*
=1	=1	=1
*	*^	*
2D 2F#	2a)	((4e	.
.	.	4d))	.
4D 4c	(4a	4d	.
=	=	=	=
*^	*	*	*
(4c	2D	2a	(4a	.
4B)	.	.	4g)	.
4A	4D	4dd	4f#	.
=	=	=	=	=
(4B	2D	2ee	(4g	.
4A)	.	.	4f#)	.
4G	4D	4b	4e	.
=	=	=	=	=
4A	2D	2dd	4f#	.
4G	.	.	4e	.
4F#	4D	4a	4d	.
*v	*v	*	*	*
*	*v	*v	*
=	=	=
!	!LO:TX:a:i:t=dim.	!
2E 2G	2c) 2cc	.
4E 4G	4c#X 4b	.
=	=	=
2E~ 2G	2c#X~ 2a	<
4D 4F#	4d 4a	.
=	=	=
2Cn^ 2E	2e^ 2a	[ >
4C 4A	4e 4g	.
=	=	=
*-	*-	*-
!!!system-decoration: {(s1,s2)}
